X: 25196
T: Malbay Shuffle, The
R: reel
M: 4/4
K: Gmajor
|:d3G AG~GG|EG~GG AGGB|~d2cB AG~GG|1 DEGB AGAB:|2 DEGB AGGA||
~B3d eg~gg|egdg eg~g2|~B3d eggd|egdB AGEG|
~B3d eg~gg|egdg eggd|egdB cABG|DEGB AGAB||

